X: 1
T: MacArthur Road (Pipes version)
C: Dave Richardson
S: from Matt Petrie
Z: T.Traub 7-9-03
R: reel
M: 4/4
K: D
L: 1/8
|: B |\
"D"dA A/A/A ABde | "D"f2 fd edBd |\
"Em"e2 ef edBd | "G"egfd "A"edBe |\
"D"fA A/A/A ABde |
"D"f2 fd "Bm"edBd |\
"Em"e2 ef "G"edBA | "A"Bdde "D"d3 :: e |\
"D"fA A/A/A fAgA | "D"fAgA fdBd |
"Em"e2 ef edBd | "G"egfd "A"edBe |\
"D"fA A/A/A fA"G"gA | "D"fA"G"gA "D"fdBd |\
"G"e2 ef edBA | "A"Bdde "D"d3 :|
